X:1530
L:1/8
Q:1/4=112
M:6/8
K:Gmin
"^Allegretto" (d/c/) | B2 G (AGF) | G2 A B2 c | ((de))f (cd)c | A2 F FGA | G2 G (AG) F | 
 G2 A B2 c | (d=e)f edc | d2 G G2 || d/=e/ | f2 d B2 c | d2 =e f2 d | g2 =e (fe)d | (cA) F (FG) A | 
 B2 G (AGF) | G2 A B2 c | (d=e)f (gf)e | d2 G G2 ||

